X:1
T:(unknown title)
M:6/8
L:1/8
K:C
 C| DDD dc A/2G/2| FED D2 c| edd cAA| GAc A2 c| edd cAA| GAF E2 D/2C/2|\
 DDD AGG| FGD D2||

